assets/img/p2.svg

<svg width="24" height="24" viewBox="0 0 24 24" fill="none" xmlns="http://www.w3.org/2000/svg">
<path d="M21.5 16.5H2.5C1.94771 16.5 1.5 16.9477 1.5 17.5V21.5C1.5 22.0523 1.94771 22.5 2.5 22.5H21.5C22.0523 22.5 22.5 22.0523 22.5 21.5V17.5C22.5 16.9477 22.0523 16.5 21.5 16.5Z" fill="#444444"/>
<path d="M16 5.5C15.7236 5.5 15.5 5.27612 15.5 5V2.5H8.5V5C8.5 5.27612 8.27637 5.5 8 5.5C7.72363 5.5 7.5 5.27612 7.5 5V2C7.5 1.72387 7.72363 1.5 8 1.5H16C16.2764 1.5 16.5 1.72387 16.5 2V5C16.5 5.27612 16.2764 5.5 16 5.5Z" fill="#B3B3B3"/>
<path d="M22.5 4.5H1.5C0.947715 4.5 0.5 4.94771 0.5 5.5V16.5C0.5 17.0523 0.947715 17.5 1.5 17.5H22.5C23.0523 17.5 23.5 17.0523 23.5 16.5V5.5C23.5 4.94771 23.0523 4.5 22.5 4.5Z" fill="#636363"/>
<path d="M14 19.5H10C9.72386 19.5 9.5 19.2761 9.5 19V16C9.5 15.7239 9.72386 15.5 10 15.5H14C14.2761 15.5 14.5 15.7239 14.5 16V19C14.5 19.2761 14.2761 19.5 14 19.5Z" fill="#EFD358"/>
</svg>

<svg xmlns="http://www.w3.org/2000/svg" width="24" height="24" fill="none" xmlns:v="https://vecta.io/nano"><path d="M21.5 16.5h-19a1 1 0 0 0-1 1v4a1 1 0 0 0 1 1h19a1 1 0 0 0 1-1v-4a1 1 0 0 0-1-1z" fill="#444"/><path d="M16 5.5a.5.5 0 0 1-.5-.5V2.5h-7V5a.5.5 0 1 1-1 0V2a.5.5 0 0 1 .5-.5h8a.5.5 0 0 1 .5.5v3a.5.5 0 0 1-.5.5z" fill="#b3b3b3"/><path d="M22.5 4.5h-21a1 1 0 0 0-1 1v11a1 1 0 0 0 1 1h21a1 1 0 0 0 1-1v-11a1 1 0 0 0-1-1z" fill="#636363"/><path d="M14 19.5h-4a.5.5 0 0 1-.5-.5v-3a.5.5 0 0 1 .5-.5h4a.5.5 0 0 1 .5.5v3a.5.5 0 0 1-.5.5z" fill="#efd358"/></svg>
